src/assets/icons/calendar-events,simple,date-from.svg

<svg width="48" height="48" viewBox="0 0 48 48" fill="none" xmlns="http://www.w3.org/2000/svg">
<rect opacity="0.2" x="5" y="5" width="38" height="38" rx="4" fill="black"/>
<path d="M5 13C5 9.22876 5 7.34315 6.17157 6.17157C7.34315 5 9.22876 5 13 5H35C38.7712 5 40.6569 5 41.8284 6.17157C43 7.34315 43 9.22876 43 13V15H5V13Z" fill="black"/>
<path d="M24 28L25.4142 29.4142C26.1953 28.6332 26.1953 27.3668 25.4142 26.5858L24 28ZM8 26C6.89543 26 6 26.8954 6 28C6 29.1046 6.89543 30 8 30V26ZM17.5858 31.5858C16.8047 32.3668 16.8047 33.6332 17.5858 34.4142C18.3668 35.1953 19.6332 35.1953 20.4142 34.4142L17.5858 31.5858ZM20.4142 21.5858C19.6332 20.8047 18.3668 20.8047 17.5858 21.5858C16.8047 22.3668 16.8047 23.6332 17.5858 24.4142L20.4142 21.5858ZM24 26H8V30H24V26ZM22.5858 26.5858L17.5858 31.5858L20.4142 34.4142L25.4142 29.4142L22.5858 26.5858ZM25.4142 26.5858L20.4142 21.5858L17.5858 24.4142L22.5858 29.4142L25.4142 26.5858Z" fill="black"/>
</svg>

<svg xmlns="http://www.w3.org/2000/svg" width="48" height="48" fill="none" viewBox="0 0 48 48">
  <rect width="38" height="38" x="5" y="5" fill="#000" opacity=".2" rx="4"/>
  <path fill="#000" d="M5 13c0-3.771 0-5.657 1.172-6.828C7.343 5 9.229 5 13 5h22c3.771 0 5.657 0 6.828 1.172C43 7.343 43 9.229 43 13v2H5v-2zM24 28l1.414 1.414a2 2 0 000-2.828L24 28zM8 26a2 2 0 100 4v-4zm9.586 5.586a2 2 0 102.828 2.828l-2.828-2.828zm2.828-10a2 2 0 10-2.828 2.828l2.828-2.828zM24 26H8v4h16v-4zm-1.414.586l-5 5 2.828 2.828 5-5-2.828-2.828zm2.828 0l-5-5-2.828 2.828 5 5 2.828-2.828z"/>
</svg>
